Numix-Circle/48/applications/multimedia-volume-control.svg

<svg xmlns="http://www.w3.org/2000/svg" viewBox="0 0 256 256" xmlns:xlink="http://www.w3.org/1999/xlink">
<g style="stroke:#c4be67">
<g style="fill:#c4be67;stroke-width:.674" transform="matrix(4.91248 0 0 4.96162 16.14372 -4974.346)">
<rect width="4.602" x="2.752" y="1022.748" rx="1.104" height="11.229"/>
<path style="stroke-linejoin:round;stroke-linecap:round;stroke-width:.491" d="m 6.8938942,1023.2662 13.6215408,-11.7859 0,14.9433 1.656675,2.4228 -1.656675,1.8175 0,14.5802 -13.6727209,-11.3792 z"/>
</g>
<g style="fill:none;stroke-linejoin:round;stroke-width:11.128" transform="translate(0 208)">
<path d="m 138.79369,-113.83653 c 18.50234,18.687773 18.50237,48.985269 2e-5,67.673044 l 0,0 0,0"/>
<path d="m 163.22207,-137.45418 c 31.41609,31.73026 31.41614,83.176178 2e-5,114.907385 l 0,0 0,0"/>
<path d="m 188.62827,-162.43599 c 45.07697,45.52817 45.07704,119.343789 3e-5,164.87196 l 0,0 0,0"/>
</g>
</g>
</svg>

<svg width="48" xmlns="http://www.w3.org/2000/svg" height="48" viewBox="0 0 48 48" xmlns:xlink="http://www.w3.org/1999/xlink">
<g style="stroke:#c3be67">
<g>
<path style="fill:#c3be67;stroke-width:.674" d="M 3.855408 1022.748713 L 6.251516 1022.748713 C 6.857965 1022.748713 7.35415 1023.239984 7.35415 1023.853023 L 7.35415 1032.872252 C 7.35415 1033.481092 6.857965 1033.976562 6.251516 1033.976562 L 3.855408 1033.976562 C 3.244719 1033.976562 2.752774 1033.481092 2.752774 1032.872252 L 2.752774 1023.853023 C 2.752774 1023.239984 3.244719 1022.748713 3.855408 1022.748713 Z " transform="matrix(.92109 0 0 .9303 3.02695 -932.68988)"/>
</g>
<g style="stroke-linejoin:round">
<g>
<path style="fill:#c3be67;stroke-linecap:round;stroke-width:.491" d="M 6.891892 1023.265177 L 20.513661 1011.478875 L 20.513661 1026.422747 L 22.171853 1028.84551 L 20.513661 1030.663633 L 20.513661 1045.2422 L 6.841001 1033.863191 Z " transform="matrix(.92109 0 0 .9303 3.02695 -932.68988)"/>
</g>
<g style="fill:none;stroke-width:11.128">
<path d="M 138.791667 -113.833333 C 157.291667 -95.145833 157.291667 -64.854167 138.791667 -46.166667 " transform="matrix(.1875 0 0 .1875 0 39)"/>
<path d="M 163.229167 -137.458333 C 194.645833 -105.729167 194.645833 -54.270833 163.229167 -22.541667 " transform="matrix(.1875 0 0 .1875 0 39)"/>
<path d="M 188.625 -162.4375 C 233.708333 -116.916667 233.708333 -43.083333 188.625 2.4375 " transform="matrix(.1875 0 0 .1875 0 39)"/>
</g>
</g>
</g>
</svg>
